packages/foundations/assets/icons/functional/images/technology/qr_code_scan_20.svg

<svg width="20" height="20" viewBox="0 0 20 20" fill="none" xmlns="http://www.w3.org/2000/svg">
<g clip-path="url(#clip0_2214_6593)">
<path fill-rule="evenodd" clip-rule="evenodd" d="M17 12C17.552 12 18 12.447 18 13V15C18 16.654 16.654 18 15 18H13C12.448 18 12 17.553 12 17C12 16.447 12.448 16 13 16H15C15.551 16 16 15.552 16 15V13C16 12.447 16.448 12 17 12ZM16 7V5C16 4.448 15.551 4 15 4H13C12.448 4 12 3.553 12 3C12 2.447 12.448 2 13 2H15C16.654 2 18 3.346 18 5V7C18 7.553 17.552 8 17 8C16.448 8 16 7.553 16 7ZM4 13V15C4 15.552 4.449 16 5 16H7C7.552 16 8 16.447 8 17C8 17.553 7.552 18 7 18H5C3.346 18 2 16.654 2 15V13C2 12.447 2.448 12 3 12C3.552 12 4 12.447 4 13ZM3 8C2.448 8 2 7.553 2 7V5C2 3.346 3.346 2 5 2H7C7.552 2 8 2.447 8 3C8 3.553 7.552 4 7 4H5C4.449 4 4 4.448 4 5V7C4 7.553 3.552 8 3 8ZM13.25 11.5H13V11.25C13 10.836 12.664 10.5 12.25 10.5H11.25C10.836 10.5 10.5 10.836 10.5 11.25V12.25C10.5 12.664 10.836 13 11.25 13H11.5V13.25C11.5 13.664 11.836 14 12.25 14H13.25C13.664 14 14 13.664 14 13.25V12.25C14 11.836 13.664 11.5 13.25 11.5ZM9.5 13V11.5C9.5 10.948 9.052 10.5 8.5 10.5H7C6.448 10.5 6 10.948 6 11.5V13C6 13.552 6.448 14 7 14H8.5C9.052 14 9.5 13.552 9.5 13ZM14 8.5V7C14 6.448 13.552 6 13 6H11.5C10.948 6 10.5 6.448 10.5 7V8.5C10.5 9.052 10.948 9.5 11.5 9.5H13C13.552 9.5 14 9.052 14 8.5ZM9.5 8.5V7C9.5 6.448 9.052 6 8.5 6H7C6.448 6 6 6.448 6 7V8.5C6 9.052 6.448 9.5 7 9.5H8.5C9.052 9.5 9.5 9.052 9.5 8.5Z" fill="#1A1C1F"/>
</g>
<defs>
<clipPath id="clip0_2214_6593">
<rect width="20" height="20" fill="white"/>
</clipPath>
</defs>
</svg>

<svg xmlns="http://www.w3.org/2000/svg" width="20" height="20" fill="none"><g clip-path="url(#a)"><path fill="#1A1C1F" fill-rule="evenodd" d="M17 12a1 1 0 0 1 1 1v2c0 1.654-1.346 3-3 3h-2a1 1 0 1 1 0-2h2c.551 0 1-.448 1-1v-2a1 1 0 0 1 1-1m-1-5V5c0-.552-.449-1-1-1h-2a1 1 0 1 1 0-2h2c1.654 0 3 1.346 3 3v2a1 1 0 1 1-2 0M4 13v2c0 .552.449 1 1 1h2a1 1 0 1 1 0 2H5c-1.654 0-3-1.346-3-3v-2a1 1 0 1 1 2 0M3 8a1 1 0 0 1-1-1V5c0-1.654 1.346-3 3-3h2a1 1 0 1 1 0 2H5c-.551 0-1 .448-1 1v2a1 1 0 0 1-1 1m10.25 3.5H13v-.25a.75.75 0 0 0-.75-.75h-1a.75.75 0 0 0-.75.75v1c0 .414.336.75.75.75h.25v.25c0 .414.336.75.75.75h1a.75.75 0 0 0 .75-.75v-1a.75.75 0 0 0-.75-.75M9.5 13v-1.5a1 1 0 0 0-1-1H7a1 1 0 0 0-1 1V13a1 1 0 0 0 1 1h1.5a1 1 0 0 0 1-1M14 8.5V7a1 1 0 0 0-1-1h-1.5a1 1 0 0 0-1 1v1.5a1 1 0 0 0 1 1H13a1 1 0 0 0 1-1m-4.5 0V7a1 1 0 0 0-1-1H7a1 1 0 0 0-1 1v1.5a1 1 0 0 0 1 1h1.5a1 1 0 0 0 1-1" clip-rule="evenodd"/></g><defs><clipPath id="a"><path fill="#fff" d="M0 0h20v20H0z"/></clipPath></defs></svg>
